cfmoto/public/img/benefits/03.svg

<svg width="41" height="33" viewBox="0 0 41 33" fill="none" xmlns="http://www.w3.org/2000/svg">
<path d="M0.399951 15.4C-4.85778e-05 20.2 1.39995 24.2 4.39995 27.8C7.39995 31.4 11.4 33 16.2 33H36.2C37.2 33 38.2 32.6 39 31.8C39.7999 31 40.2 30 40.2 29V27.4C40.2 26.2 40 24.8 39.7999 23H23.4C21.4 23 19.7999 22.2 18.4 20.8C17 19.4 16.2 17.6 16.2 15.8C16.2 12.6 17.6 10.4 20.6 9.20003L30.2 5.00003C26.8 2.60003 22.8 1.20003 18.2 1.00003C13.8 0.600026 9.79995 2.00003 6.19995 4.80003C2.59995 7.60003 0.799951 11 0.399951 15.4ZM20.2 15.8C20.2 16.6 20.6 17.4 21.2 18C21.8 18.6 22.6 19 23.4 19H39C37.7999 14.6 36 11 33.4 8.20003L22.2 12.8C20.8 13.2 20.2 14.2 20.2 15.8Z" fill="#121214"/>
</svg>

<svg width="41" height="33" fill="none" xmlns="http://www.w3.org/2000/svg"><path d="M.4 15.4c-.4 4.8 1 8.8 4 12.4 3 3.6 7 5.2 11.8 5.2h20c1 0 2-.4 2.8-1.2.8-.8 1.2-1.8 1.2-2.8v-1.6c0-1.2-.2-2.6-.4-4.4H23.4c-2 0-3.6-.8-5-2.2-1.4-1.4-2.2-3.2-2.2-5 0-3.2 1.4-5.4 4.4-6.6L30.2 5c-3.4-2.4-7.4-3.8-12-4-4.4-.4-8.4 1-12 3.8C2.6 7.6.8 11 .4 15.4zm19.8.4c0 .8.4 1.6 1 2.2.6.6 1.4 1 2.2 1H39c-1.2-4.4-3-8-5.6-10.8l-11.2 4.6c-1.4.4-2 1.4-2 3z" fill="#121214"/></svg>
